packages/icons/src/svg/launcher.svg

<svg xmlns="http://www.w3.org/2000/svg" viewBox="0 0 16 16">
	<path d="M4 4H0V0h4zm6-4H6v4h4zm6 0h-4v4h4zM4 16H0v-4h4zm6-4H6v4h4zm6 0h-4v4h4zM4 10H0V6h4zm6-4H6v4h4zm6 0h-4v4h4z"/>
</svg>

<svg xmlns="http://www.w3.org/2000/svg" viewBox="0 0 16 16"><path d="M4,4H0V0H4Zm6-4H6V4h4Zm6,0H12V4h4ZM4,16H0V12H4Zm6-4H6v4h4Zm6,0H12v4h4ZM4,10H0V6H4Zm6-4H6v4h4Zm6,0H12v4h4Z"/></svg>
